X: 222
T:Off She Goes
% Nottingham Music Database
S:Trad, via EF
Y:AB
M:6/8
K:D
P:A
A|"D"F2A "G"G2B|"A7"ABc "D"d3|"D"F2A "G"G2B|"D"AFD "A7"E3|"D"F2A "G"G2B|\
"A7"ABc "D"d2e|"D""Bm"f2d "Em"g2f|"A7"edc "D"d2:|
P:B
g|"D"faf def|"Em"gbg "A7"efg|"D"faf def|"A7"ecA A2g|
"D"faf def|"Em"gbg "A"efg|"D""Bm"fed "Em"g2f|"A7"edc "D"d2:|


